public/editor-src/editor/icons/fa/champagne-glasses.svg

<svg xmlns="http://www.w3.org/2000/svg" viewBox="0 0 640 512"><!--! Font Awesome Free 6.4.0 by @fontawesome - https://fontawesome.com License - https://fontawesome.com/license/free (Icons: CC BY 4.0, Fonts: SIL OFL 1.1, Code: MIT License) Copyright 2023 Fonticons, Inc.--><path d="M155.6 17.3C163 3 179.9-3.6 195 1.9l125 45.6L445 1.9c15.1-5.5 32 1.1 39.4 15.4l78.8 152.9c28.8 55.8 10.3 122.3-38.5 156.6l31.4 86.2 41-15c16.6-6 35 2.5 41 19.1s-2.5 35-19.1 41L547.9 484l-71.1 26c-16.6 6.1-35-2.5-41-19.1s2.5-35 19.1-41l41-15-31.3-86.2c-59.4 5.2-116.2-34-130-95.2L320 188.8l-14.6 64.7c-13.8 61.3-70.6 100.4-130 95.2l-31.3 86.2 41 15c16.6 6 25.2 24.4 19.1 41s-24.4 25.2-41 19.1l-71-25.9-71.1-25.9c-16.6-6.1-25.2-24.4-19.1-41s24.4-25.2 41-19.1l41 15 31.3-86.2C66.5 292.5 48.1 226 76.9 170.2l78.7-152.9zm44 54.4-27.2 52.8 89.2 32.5 13.1-57.9-75.1-27.4zm240.9 0-75.1 27.4 13.1 57.9 89.2-32.5-27.2-52.8z"/></svg>

<svg xmlns="http://www.w3.org/2000/svg" viewBox="0 0 640 512"><!--! Font Awesome Free 6.4.0 by @fontawesome - https://fontawesome.com License - https://fontawesome.com/license/free (Icons: CC BY 4.0, Fonts: SIL OFL 1.1, Code: MIT License) Copyright 2023 Fonticons, Inc. --><path d="M155.6 17.3C163 3 179.9-3.6 195 1.9L320 47.5l125-45.6c15.1-5.5 32 1.1 39.4 15.4l78.8 152.9c28.8 55.8 10.3 122.3-38.5 156.6L556.1 413l41-15c16.6-6 35 2.5 41 19.1s-2.5 35-19.1 41l-71.1 25.9L476.8 510c-16.6 6.1-35-2.5-41-19.1s2.5-35 19.1-41l41-15-31.3-86.2c-59.4 5.2-116.2-34-130-95.2L320 188.8l-14.6 64.7c-13.8 61.3-70.6 100.4-130 95.2l-31.3 86.2 41 15c16.6 6 25.2 24.4 19.1 41s-24.4 25.2-41 19.1L92.2 484.1 21.1 458.2c-16.6-6.1-25.2-24.4-19.1-41s24.4-25.2 41-19.1l41 15 31.3-86.2C66.5 292.5 48.1 226 76.9 170.2L155.6 17.3zm44 54.4l-27.2 52.8L261.6 157l13.1-57.9L199.6 71.7zm240.9 0L365.4 99.1 378.5 157l89.2-32.5L440.5 71.7z"/></svg>
